public/svgs/logo-cn.svg

<svg viewBox="0 0 663 121" fill="none" xmlns="http://www.w3.org/2000/svg">
    <path d="M289 49H333V38H232V49H268.403L237.378 88.244L246.008 95.0659L278 54.5981L278 110L289 110L289 49Z"
          fill="#222222"/>
    <path d="M295.815 65.5699L321.12 95.2247L329.488 88.0846L304.183 58.4298L295.815 65.5699Z" fill="#222222"/>
    <path d="M365 110V49H342V38H365V32H376V38H443V49H411V67H436V89.5C436 100.822 426.822 110 415.5 110H400V99H415.5C420.747 99 425 94.7467 425 89.5V78H400V49H376V110H365Z"
          fill="#222222"/>
    <path d="M348 55V91H359V55H348Z" fill="#222222"/>
    <path d="M382 87V55H393V87H382Z" fill="#222222"/>
    <path fill-rule="evenodd" clip-rule="evenodd"
          d="M498 49V55H457V78H523.5V82H452V93H553V82H548V74.5C548 63.7304 539.27 55 528.5 55H509V49H553V38H509V32H498V38H452V49H498ZM539 82V74.5C539 68.701 534.299 64 528.5 64H466V69H532.5V82H539Z"
          fill="#222222"/>
    <path d="M553 99H521V110H553V99Z" fill="#222222"/>
    <path d="M452 99H483V110H452V99Z" fill="#222222"/>
    <path d="M652 33H641V22H652V33Z" fill="#222222"/>
    <path d="M584 49H562V38H584V32H595V38H663V49H595V90.5C595 101.27 586.27 110 575.5 110H562V99H575.5C580.194 99 584 95.1944 584 90.5V49Z"
          fill="#222222"/>
    <path d="M612.5 71V55H623.5V71H627.5C634.956 71 641 64.9558 641 57.5V55H652V57.5C652 71.031 641.031 82 627.5 82H623.5V89.5C623.5 94.7467 627.753 99 633 99H663V110H633C621.678 110 612.5 100.822 612.5 89.5V82H601V71H612.5Z"
          fill="#222222"/>
    <path d="M193.486 36.9694C185.979 29.4756 176.77 24.9794 167.061 23.2808C152.146 20.7828 126.321 21.0826 126.321 21.0826C139.434 16.5863 154.849 18.6846 154.849 18.6846C142.037 12.9893 116.512 16.986 116.512 16.986C128.323 13.7886 135.73 13.3889 146.741 14.6879C146.741 14.6879 134.029 8.99257 110.006 12.7894C107.704 13.0892 105.702 15.687 104.4 16.5863C101.197 18.6846 98.6949 19.5838 94.9913 18.185C93.1896 17.4856 91.2878 16.886 89.0856 16.0867C90.9875 14.2882 93.0895 13.9884 95.3917 14.2882C97.0933 14.488 98.9952 14.2882 100.597 13.9884C103.399 13.3889 104.801 11.4905 108.404 11.2907C108.404 11.2907 115.111 11.2907 121.317 10.891C127.523 10.5912 132.628 7.39389 134.73 5.99505C125.621 5.89513 117.313 8.99257 107.804 8.89265C117.413 8.29315 122.818 5.39554 129.625 0C122.918 2.49794 118.914 5.6953 111.407 5.79521C107.203 5.89513 102.899 6.8943 98.8951 7.69364C95.5919 8.29315 92.9894 11.8902 89.8864 13.289C86.5832 14.6879 83.2801 13.8885 81.0779 11.5904C78.1752 14.5879 78.0751 18.0851 80.4774 21.3823C81.3782 20.1833 82.4793 18.8844 83.8806 17.2857C84.7815 18.7845 85.3821 19.4839 85.7825 20.0834C88.5852 18.5846 92.4889 19.5838 94.3907 22.0817C95.692 23.6804 94.3908 24.3799 93.4899 25.0793C89.7863 27.777 87.8845 27.0776 86.1829 25.379L84.8816 28.3766L80.8778 28.2766L88.1848 35.6705L88.4851 32.7729L91.8883 32.673C93.1896 29.6755 96.4928 29.3757 98.795 30.3749C101.197 31.474 102.799 34.2717 104.601 36.1701C104.701 35.9703 104.801 35.3708 104.901 34.6714C106.002 31.1742 108.604 30.4748 111.307 32.8728L115.411 36.8695C117.813 39.1676 117.913 43.0644 115.611 45.4624L89.1857 71.8406L88.9856 72.0405L69.1665 91.6243C58.1559 102.615 40.2387 102.615 29.3282 91.6243C18.3176 80.6334 18.3176 62.7481 29.3282 51.8571C34.8335 46.3617 42.0404 43.6639 49.2474 43.6639C56.4543 43.6639 63.6612 46.3617 69.1665 51.8571L84.4812 67.1445L99.2955 52.3567L83.9807 37.0694C64.7623 17.8852 33.5322 17.8852 14.4139 37.0694C5.10491 46.3617 0 58.6515 0 71.8406C0 84.9298 5.10491 97.3196 14.4139 106.612C24.0231 116.204 36.6352 121 49.2474 121C61.8595 121 74.4716 116.204 84.0808 106.612L118.914 71.8406L119.115 71.6408L138.833 51.9571C149.844 40.9661 167.761 40.9661 178.672 51.9571C189.682 62.948 189.682 80.8332 178.672 91.7242C173.166 97.2197 165.96 99.9174 158.753 99.9174C151.546 99.9174 144.339 97.2197 138.833 91.7242L123.519 76.4368L108.705 91.2246L124.019 106.512C143.238 125.696 174.468 125.696 193.586 106.512C202.895 97.2197 208 84.9298 208 71.7407C207.9 58.6515 202.795 46.2618 193.486 36.9694Z"
          fill="#C11111"/>
</svg>

<svg xmlns="http://www.w3.org/2000/svg" fill="none" viewBox="0 0 663 121"><path fill="#222" d="M289 49h44V38H232v11h36.403l-31.025 39.244 8.63 6.822L278 54.598V110h11z"/><path fill="#222" d="m295.815 65.57 25.305 29.655 8.368-7.14-25.305-29.655zM365 110V49h-23V38h23v-6h11v6h67v11h-32v18h25v22.5c0 11.322-9.178 20.5-20.5 20.5H400V99h15.5a9.5 9.5 0 0 0 9.5-9.5V78h-25V49h-24v61z"/><path fill="#222" d="M348 55v36h11V55zM382 87V55h11v32z"/><path fill="#222" fill-rule="evenodd" d="M498 49v6h-41v23h66.5v4H452v11h101V82h-5v-7.5c0-10.77-8.73-19.5-19.5-19.5H509v-6h44V38h-44v-6h-11v6h-46v11zm41 33v-7.5c0-5.799-4.701-10.5-10.5-10.5H466v5h66.5v13z" clip-rule="evenodd"/><path fill="#222" d="M553 99h-32v11h32zM452 99h31v11h-31zM652 33h-11V22h11zM584 49h-22V38h22v-6h11v6h68v11h-68v41.5c0 10.77-8.73 19.5-19.5 19.5H562V99h13.5a8.5 8.5 0 0 0 8.5-8.5z"/><path fill="#222" d="M612.5 71V55h11v16h4c7.456 0 13.5-6.044 13.5-13.5V55h11v2.5c0 13.531-10.969 24.5-24.5 24.5h-4v7.5A9.5 9.5 0 0 0 633 99h30v11h-30c-11.322 0-20.5-9.178-20.5-20.5V82H601V71z"/><path fill="#c11111" d="M193.486 36.97c-7.507-7.494-16.716-11.99-26.425-13.69-14.915-2.497-40.74-2.197-40.74-2.197 13.113-4.497 28.528-2.398 28.528-2.398-12.812-5.696-38.337-1.699-38.337-1.699 11.811-3.197 19.218-3.597 30.229-2.298 0 0-12.712-5.695-36.735-1.899-2.302.3-4.304 2.898-5.606 3.797-3.203 2.099-5.705 2.998-9.409 1.599-1.801-.7-3.703-1.299-5.905-2.098 1.901-1.799 4.004-2.099 6.306-1.799 1.701.2 3.603 0 5.205-.3 2.802-.6 4.204-2.497 7.807-2.697 0 0 6.707 0 12.913-.4 6.206-.3 11.311-3.497 13.413-4.896-9.109-.1-17.417 2.998-26.926 2.898 9.609-.6 15.014-3.497 21.821-8.893-6.707 2.498-10.711 5.695-18.218 5.795-4.204.1-8.508 1.1-12.512 1.899-3.303.6-5.906 4.196-9.009 5.595-3.303 1.399-6.606.6-8.808-1.699-2.903 2.998-3.003 6.495-.6 9.792.9-1.199 2.001-2.498 3.403-4.096.9 1.499 1.501 2.198 1.901 2.797 2.803-1.498 6.707-.5 8.609 1.999 1.301 1.598 0 2.298-.901 2.997-3.704 2.698-5.605 1.999-7.307.3l-1.301 2.998-4.004-.1 7.307 7.393.3-2.897 3.403-.1c1.302-2.998 4.605-3.297 6.907-2.298 2.402 1.099 4.004 3.897 5.806 5.795.1-.2.2-.8.3-1.499 1.101-3.497 3.703-4.196 6.406-1.798l4.104 3.997c2.402 2.298 2.502 6.194.2 8.592L89.186 71.841l-.2.2-19.82 19.583c-11.01 10.991-28.927 10.991-39.838 0-11.01-10.99-11.01-28.876 0-39.767 5.506-5.495 12.712-8.193 19.92-8.193 7.206 0 14.413 2.698 19.919 8.193L84.48 67.144l14.815-14.787L83.98 37.069c-19.219-19.184-50.449-19.184-69.567 0C5.104 46.362 0 58.651 0 71.841 0 84.93 5.105 97.32 14.414 106.612 24.024 116.204 36.635 121 49.247 121s25.225-4.796 34.834-14.388l34.833-34.771.201-.2 19.718-19.684c11.011-10.99 28.928-10.99 39.839 0 11.01 10.991 11.01 28.876 0 39.767-5.506 5.496-12.712 8.193-19.919 8.193s-14.414-2.697-19.92-8.193l-15.314-15.287-14.814 14.788 15.314 15.287c19.219 19.184 50.449 19.184 69.567 0C202.895 97.22 208 84.93 208 71.741c-.1-13.09-5.205-25.48-14.514-34.772"/></svg>
